X:1
T:Holy War, 11.11.11.11
T:Holy War, 11.11.11.11
T:Josiah Booth (1852-1929) 
T:Public Domain Courtesy of the Cyber Hymnal™
C:Josiah Booth (1852-1929)
Z:Public Domain
Z:Courtesy of the Cyber Hymnal™
%%score ( 1 2 ) ( 3 4 )
L:1/8
Q:1/4=110
M:4/4
K:Ab
V:1 treble 
V:2 treble 
V:3 bass 
V:4 bass 
V:1
 F2 F2 F2 F2 | A3 z G F4 [B,D]2 | F3 F E2 D2 x | C8 | F2 F2 F2 F2 | A3 z G ([CF]2 [C_EG]2) | %6
 [CFA]3 [CFA] [CFB]2 [FA=B]2 | c8 ([=EG]2 F2 [EGB]2) | [Fc]3 [Fc] [FA]2 F2 | [Fd]4 [Ec]4 | %10
 [Ec]3 [Ec] [Fc]2 [Gf]2 | [Ge]8 | [Ff]3 [Ff] [Ge]2 [Fd]2 | [^Fc]2 [GB]2 [EA]2 =F2 | A6 [EG]2 | %15
 F8 |] %16
V:2
 x8 | C2 (D2 [A,C]2) x5 | x9 | x8 | x8 | [CF]2 [B,=E]2 x5 | x8 | ([FG]2 C4) x8 | x6 F2 | x8 | x8 | %11
 x8 | x8 | x6 F2 | (F2 C2 D2) x2 | F8 |] %16
V:3
 [F,,F,-A,C]2 [B,,F,-B,D]2 [F,,F,-A,C]2 [B,,F,B,D]2 | F,3 z =E, F,4 x2 | %2
 [A,C]3 z [A,C] [B,,F,B,]2 [G,,F,B,]2 | [C,F,G,]2 [B,,=E,G,]2 [A,,F,A,]2 [G,,G,B,]2 | %4
 [F,,F,-A,C]2 [B,,F,-B,D]2 [F,,F,-A,C]2 [B,,F,B,D]2 | [F,,F,]2 C,2 (A,2 G,2) x | %6
 F,2 E,2 =D,2 _D,2 | (C,2 B,,2 =A,,2 G,,2) x6 | [F,A,]3 [F,A,] [F,C]2 [F,A,]2 | [D,A,]4 [A,,A,]4 | %10
 A,2 [G,B,]2 [F,A,]2 [D,=B,]2 | ([C,C-]6 [B,,B,C]2) | [A,C]3 [A,C] [A,,^C]2 [B,,D]2 | %13
 [D,D]2 [G,,D]2 [D,^C]2 [D,A,]2 | [C,C]6 [C,B,]2 | [F,,F,A,]8 |] %16
V:4
 x8 | F,,2 (B,,2 F,,2) B,,2 x3 | F,,2 A,,2 x5 | x8 | x8 | x9 | x8 | x14 | x8 | x8 | A,2 x6 | x8 | %12
 A,,4 x4 | x8 | x8 | x8 |] %16

